symbols/web/camera/materialsymbolsoutlined/camera_wght200gradN25_24px.svg

<svg xmlns="http://www.w3.org/2000/svg" height="24" width="24"><path d="M11.275 9.275h8.175q-.65-1.75-2.075-3.1-1.425-1.35-3.25-1.8ZM9.25 11.25l4.125-7.075q-.275-.05-.687-.075-.413-.025-.688-.025-1.65 0-3.062.613Q7.525 5.3 6.45 6.35Zm-4.925 2.725H9.95L5.925 6.95Q5.05 8 4.562 9.275 4.075 10.55 4.075 12q0 .525.063 1 .062.475.187.975Zm5.575 5.65 2.85-4.9h-8.2q.65 1.75 2.088 3.1 1.437 1.35 3.262 1.8Zm2.1.3q1.65 0 3.062-.613 1.413-.612 2.488-1.662l-2.8-4.9-4.075 7.025q.275.075.65.113.375.037.675.037Zm6.075-2.875q.8-1 1.325-2.337.525-1.338.525-2.713 0-.525-.062-1-.063-.475-.188-.975H14.05ZM12 12Zm0 8.85q-1.825 0-3.438-.7-1.612-.7-2.812-1.9-1.2-1.2-1.9-2.812-.7-1.613-.7-3.438 0-1.825.7-3.438.7-1.612 1.9-2.812 1.2-1.2 2.812-1.9 1.613-.7 3.438-.7 1.825 0 3.438.7 1.612.7 2.812 1.9 1.2 1.2 1.9 2.812.7 1.613.7 3.438 0 1.825-.7 3.438-.7 1.612-1.9 2.812-1.2 1.2-2.812 1.9-1.613.7-3.438.7Z"/></svg>

<svg xmlns="http://www.w3.org/2000/svg" height="24" width="24"><path d="M11.275 9.275H19.45Q18.8 7.525 17.375 6.175Q15.95 4.825 14.125 4.375ZM9.25 11.25 13.375 4.175Q13.1 4.125 12.688 4.1Q12.275 4.075 12 4.075Q10.35 4.075 8.938 4.688Q7.525 5.3 6.45 6.35ZM4.325 13.975H9.95L5.925 6.95Q5.05 8 4.562 9.275Q4.075 10.55 4.075 12Q4.075 12.525 4.138 13Q4.2 13.475 4.325 13.975ZM9.9 19.625 12.75 14.725H4.55Q5.2 16.475 6.638 17.825Q8.075 19.175 9.9 19.625ZM12 19.925Q13.65 19.925 15.062 19.312Q16.475 18.7 17.55 17.65L14.75 12.75L10.675 19.775Q10.95 19.85 11.325 19.888Q11.7 19.925 12 19.925ZM18.075 17.05Q18.875 16.05 19.4 14.713Q19.925 13.375 19.925 12Q19.925 11.475 19.863 11Q19.8 10.525 19.675 10.025H14.05ZM12 12Q12 12 12 12Q12 12 12 12Q12 12 12 12Q12 12 12 12Q12 12 12 12Q12 12 12 12Q12 12 12 12Q12 12 12 12Q12 12 12 12Q12 12 12 12Q12 12 12 12Q12 12 12 12Q12 12 12 12Q12 12 12 12Q12 12 12 12Q12 12 12 12ZM12 20.85Q10.175 20.85 8.562 20.15Q6.95 19.45 5.75 18.25Q4.55 17.05 3.85 15.438Q3.15 13.825 3.15 12Q3.15 10.175 3.85 8.562Q4.55 6.95 5.75 5.75Q6.95 4.55 8.562 3.85Q10.175 3.15 12 3.15Q13.825 3.15 15.438 3.85Q17.05 4.55 18.25 5.75Q19.45 6.95 20.15 8.562Q20.85 10.175 20.85 12Q20.85 13.825 20.15 15.438Q19.45 17.05 18.25 18.25Q17.05 19.45 15.438 20.15Q13.825 20.85 12 20.85Z"/></svg>
